X: 3658
T: Bill The Weaver's
R: slide
M: 12/8
K: Dmajor
|:fed B2d A2d F2B|A2F DEF E3 E3|
fed B2d A2d F2B|A2F EFE D3 D3:|
|:fef a2a baf a2f|d2f a2f g3 f2e|
[1 fef a2a baf a2f|d2f a2f d3 d3:|
[2 fga efg fed Bcd|ABA GFE D3 D3||

